X:133
T:Opus De Funk
C:
N:TablEdited by Will Patton 
L:1/8
Q:1/4=188
M:4/4
K:F
z4 z_D (3=DFA | cA Bc _d=d g_g | f=B z2 _AB ed | cA BG AF GF | _GA cd (3_efe dc | 
Bf dG _A=B ed | cA BG AC EF | zC (3FAd cA BG | AF C=B, _B,G FE | FC z2 GE FG | 
AC z2 A2 B=B | cf z2 cF BA | z8 | FB, z2 GE FG | _AF C=B, _B,G EF | z2 (3Bc_A =AF CB, | 
A,4 z_A (3=Ac_e | ff ff _ec ff | _ec B_A BA BA | B_A BA (3=B_BA F/_E/F | z8 | 
FC z2 _DA G2 | FD z2 A2 B=B | cf z2 cF BA | z8 | FB, z2 GE FG | _AF C=B, _B,G EF | 
z2 (3Bc_A =AF CB, | A,4 z_A (3=Ac_e | ff ff _ec ff | _ec B_A BA BA | B_A BA (3=B_BA F/_E/F | 
z8 | 


